X: 2080
Q: "Strathspey."
M: C
L: 1/8
K: C
(ue/f/) |\
vg<cg>ue vg<cg>ue | g<cg>e f<d d(e/f/) |\
g<cg>e g<cg>e | f<ag>f e<c c ::\
ue |\
vG>vcuE>uc vG>vcue>uc |
[1 vG>vcuE>uc G>ce>c | ve<a g>ufe<c vc :|\
[2 {fg}va>vfug>ue f>de>c | e<a g>fe<c c |]


